X: 20283
T: Joey Clement's
R: polka
M: 2/4
K: Edorian
Bc/B/ AF|EF D2|EF AF|EF A2|
Bc/B/ AF|EF D2|EF AF|E2 E2:|
|:Be ed|Be e2|dc BA|Bc d2|
ed Bc/B/|AF D2|EF AF|E2 E2:|

